X: 03047
T: JOEY'S HORNPIPE
C: Bob McQuillen 10 Feb 78
B: Bob's Note Book 03 #47
R: hornpipe, reel
%D:1978
Z: 2020 John Chambers <jc:trillian.mit.edu>
M: C
L: 1/8
K: D
(3(ABc) \
| d2A2 ABAG | FEDF EGFE | DFAd fagf | edcB A2Bc |
| d2A2 ABAG | FEDF EGFE | DFAd faag | f2d2 d2  :|
|: AG \
| FAAd dAAG | FAde d2AG | FAAd dAdf | edcB A2AG |
| FAAd dAAG | FAde dBAG | FGAB cdec | d2f2 d2  :|
%%begintext align
%% Happy Birthday! And love
%% always to Joey Lance Haddock
%%endtext

%%sep 1 1 500

%%sep 1 1 500

